src/assets/icons/instagram.svg

<svg id="Layer_1" height="512" viewBox="0 0 512 512" width="512" xmlns="http://www.w3.org/2000/svg" data-name="Layer 1"><circle cx="256" cy="256" r="52.5"/><path d="m256 6c-138.071 0-250 111.929-250 250s111.929 250 250 250 250-111.929 250-250-111.929-250-250-250zm154.458 313.54c-1.2 23.768-7.879 47.206-25.2 64.343-17.489 17.3-41.038 23.746-65.035 24.934h-128.445c-24-1.188-47.546-7.63-65.035-24.934-17.322-17.137-24-40.575-25.2-64.343v-127.08c1.2-23.768 7.879-47.206 25.2-64.344 17.489-17.3 41.038-23.746 65.035-24.933h128.444c24 1.187 47.546 7.63 65.035 24.933 17.322 17.138 24 40.576 25.2 64.344z"/><path d="m318.6 132.138c-31.286-.858-93.906-.858-125.192 0-16.281.447-34.738 4.5-46.338 16.89-12.054 12.879-16.609 28.439-17.071 45.846-.812 30.552 0 122.252 0 122.252.529 17.405 5.017 32.967 17.071 45.846 11.6 12.394 30.057 16.443 46.338 16.89 31.286.858 93.906.858 125.192 0 16.281-.447 34.738-4.5 46.338-16.89 12.054-12.879 16.609-28.439 17.071-45.846v-122.252c-.462-17.407-5.017-32.967-17.071-45.846-11.604-12.394-30.061-16.443-46.338-16.89zm-62.6 205.237a81.375 81.375 0 1 1 81.375-81.375 81.375 81.375 0 0 1 -81.375 81.375zm81.721-145.953a16.275 16.275 0 1 1 16.279-16.275 16.275 16.275 0 0 1 -16.279 16.275z"/></svg>

<svg width="512" height="512" viewBox="0 0 512 512" fill="none" xmlns="http://www.w3.org/2000/svg">
<path d="M256 308.5C284.995 308.5 308.5 284.995 308.5 256C308.5 227.005 284.995 203.5 256 203.5C227.005 203.5 203.5 227.005 203.5 256C203.5 284.995 227.005 308.5 256 308.5Z" fill="#DCEAE7"/>
<path d="M256 6C117.929 6 6 117.929 6 256C6 394.071 117.929 506 256 506C394.071 506 506 394.071 506 256C506 117.929 394.071 6 256 6ZM410.458 319.54C409.258 343.308 402.579 366.746 385.258 383.883C367.769 401.183 344.22 407.629 320.223 408.817H191.778C167.778 407.629 144.232 401.187 126.743 383.883C109.421 366.746 102.743 343.308 101.543 319.54V192.46C102.743 168.692 109.422 145.254 126.743 128.116C144.232 110.816 167.781 104.37 191.778 103.183H320.222C344.222 104.37 367.768 110.813 385.257 128.116C402.579 145.254 409.257 168.692 410.457 192.46L410.458 319.54Z" fill="#DCEAE7"/>
<path d="M318.6 132.138C287.314 131.28 224.694 131.28 193.408 132.138C177.127 132.585 158.67 136.638 147.07 149.028C135.016 161.907 130.461 177.467 129.999 194.874C129.187 225.426 129.999 317.126 129.999 317.126C130.528 334.531 135.016 350.093 147.07 362.972C158.67 375.366 177.127 379.415 193.408 379.862C224.694 380.72 287.314 380.72 318.6 379.862C334.881 379.415 353.338 375.362 364.938 362.972C376.992 350.093 381.547 334.533 382.009 317.126V194.874C381.547 177.467 376.992 161.907 364.938 149.028C353.334 136.634 334.877 132.585 318.6 132.138ZM256 337.375C239.906 337.375 224.173 332.603 210.791 323.661C197.408 314.719 186.978 302.01 180.819 287.141C174.66 272.272 173.049 255.91 176.189 240.125C179.329 224.339 187.079 209.84 198.459 198.459C209.84 187.079 224.339 179.329 240.125 176.189C255.91 173.049 272.272 174.66 287.141 180.819C302.01 186.979 314.719 197.409 323.661 210.791C332.603 224.173 337.375 239.906 337.375 256C337.375 277.582 328.802 298.28 313.541 313.541C298.28 328.802 277.582 337.375 256 337.375ZM337.721 191.422C334.502 191.421 331.356 190.466 328.68 188.677C326.004 186.889 323.919 184.346 322.688 181.373C321.457 178.399 321.135 175.126 321.763 171.97C322.392 168.813 323.942 165.913 326.218 163.638C328.495 161.362 331.395 159.812 334.551 159.185C337.708 158.557 340.981 158.879 343.954 160.111C346.928 161.343 349.469 163.429 351.258 166.106C353.046 168.782 354 171.928 354 175.147C354 177.285 353.579 179.401 352.761 181.376C351.943 183.351 350.744 185.145 349.232 186.657C347.72 188.168 345.926 189.367 343.95 190.184C341.975 191.002 339.859 191.423 337.721 191.422Z" fill="#DCEAE7"/>
</svg>
